svgs/sharp-light/object-subtract.svg

<svg xmlns="http://www.w3.org/2000/svg" viewBox="0 0 512 512"><!--! Font Awesome Pro 6.6.0 by @fontawesome - https://fontawesome.com License - https://fontawesome.com/license (Commercial License) Copyright 2024 Fonticons, Inc. --><path d="M32 32l64 0L96 0 32 0 0 0 0 32 0 96l32 0 0-64zm192 0l0-32L128 0l0 32 96 0zM32 128L0 128l0 96 32 0 0-96zm0 128L0 256l0 64 0 32 32 0 64 0 0-32-64 0 0-64zm96 96l32 0 32 0 32 0 0-32-32 0-32 0-32 0 0 32zm32 32l0 96 0 32 32 0 288 0 32 0 0-32 0-288 0-32-32 0-96 0 0 32 96 0 0 288-288 0 0-96-32 0zM352 192l0-32 0-32-32 0 0 32 0 32 0 32 32 0 0-32zm0-160l0-32L320 0 256 0l0 32 64 0 0 64 32 0 0-64zM256 320l0 32 64 0 32 0 0-32 0-64-32 0 0 64-64 0z"/></svg>

<svg xmlns="http://www.w3.org/2000/svg" viewBox="0 0 512 512"><!--! Font Awesome Pro 6.4.2 by @fontawesome - https://fontawesome.com License - https://fontawesome.com/license (Commercial License) Copyright 2023 Fonticons, Inc. --><path d="M32 32l64 0V0H32 0V32 96H32l0-64zm192 0V0H128V32l96 0zM32 128H0v96H32l0-96zm0 128H0v64 32H32 96V320H32l0-64zm96 96h32l32 0h32V320H192 160 128v32zm32 32l0 96v32h32l288 0h32V480 192l0-32H480l-96 0v32l96 0 0 288-288 0 0-96H160zM352 192l0-32V128H320v32 32 32h32V192zm0-160V0H320 256V32l64 0V96h32V32zM256 320v32h64 32V320 256H320v64l-64 0z"/></svg>
